chart.ti3
CTI3   

DESCRIPTOR "Argyll Calibration Target chart information 3"
ORIGINATOR "Argyll target"
CREATED "Sat May  8 16:36:04 2021"
DEVICE_CLASS "INPUT"
COLOR_REP "XYZ_RGB"

NUMBER_OF_FIELDS 10
BEGIN_DATA_FORMAT
SAMPLE_ID XYZ_X XYZ_Y XYZ_Z RGB_R RGB_G RGB_B STDEV_R STDEV_G STDEV_B 
END_DATA_FORMAT

NUMBER_OF_SETS 24
BEGIN_DATA
A01 85.00000 89.31000 96.33000 27.93510 28.60098 24.93901 0.486040 0.495461 0.563082 
B01 12.84000 18.14000 36.39000 4.766215 6.330266 10.39787 0.193346 0.214942 0.292345 
C01 35.76000 28.16000 5.450000 11.43359 8.515763 1.223388 0.301333 0.325965 0.428071 
D01 30.35000 42.13000 42.95000 10.03517 13.18005 11.70347 0.281140 0.307640 0.346509 
A02 54.09000 56.94000 61.35000 17.89943 18.37671 15.85415 0.381718 0.388553 0.447103 
B02 28.20000 18.34000 29.84000 9.240834 6.004796 7.148322 0.205676 0.165482 0.220039 
C02 12.71000 11.07000 36.60000 3.553294 3.325528 8.784781 0.151002 0.159703 0.232476 
D02 24.45000 23.05000 44.34000 7.675619 7.267465 10.85822 0.246196 0.252908 0.294566 
A03 32.55000 34.33000 36.79000 10.67488 10.96069 9.402302 0.266673 0.267751 0.308120 
B03 57.08000 61.01000 8.560000 18.73608 18.79039 2.515252 0.331563 0.317638 0.279557 
C03 27.74000 18.51000 13.48000 9.148488 5.884175 3.421373 0.208374 0.163311 0.166632 
D03 9.730000 12.51000 6.590000 3.084334 3.764189 1.589858 0.144227 0.148299 0.146099 
A04 17.72000 18.68000 20.09000 5.644580 5.802685 4.956443 0.183828 0.183663 0.202159 
B04 19.63000 11.29000 4.870000 7.093429 3.988989 1.408457 0.159304 0.114789 0.110090 
C04 9.340000 6.930000 16.38000 2.577725 1.893710 3.464128 0.115593 0.109299 0.138489 
D04 17.28000 18.47000 34.69000 5.118002 5.574878 8.243329 0.166804 0.175638 0.232347 
A05 7.890000 8.300000 8.870000 2.574579 2.638895 2.209193 0.130925 0.129735 0.136812 
B05 13.70000 22.39000 9.240000 4.710186 7.168459 2.523323 0.174667 0.191303 0.191525 
C05 33.22000 43.77000 10.98000 10.90294 13.41597 2.737630 0.256944 0.268201 0.239890 
D05 36.71000 34.18000 24.66000 12.10693 10.69470 6.484298 0.265304 0.238060 0.240012 
A06 2.650000 2.780000 3.120000 0.959229 0.984690 0.852039 0.133140 0.135612 0.130735 
B06 7.320000 5.350000 26.41000 1.960350 1.603082 6.550115 0.116742 0.124150 0.166534 
C06 46.49000 42.42000 7.530000 14.74255 12.75098 1.750432 0.299378 0.255682 0.210876 
D06 10.43000 9.320000 6.270000 3.163249 2.666194 1.366246 0.131643 0.121505 0.119147 
END_DATA
